X: 87
T: Prenez sur moy
N: Derived from Ock3015-Prenez_sur_moy.krn
C: Johannes Ockeghem
%%abc-version 2.0
%%abcx-abcm2ps-target-version 5.9.1 (29 Sep 2008)
%%abc-creator hum2abc beta
%%abcx-conversion-date 2019/02/17 07:26:16
%%abc-edited-by Jesse Rodin
%%abc-edited-by Jesse Rodin (8/16/2012)
%%abcx-initial-encoding-date 2012/08/16/
%%humdrum-veritas 134524391
%%humdrum-veritas-data 3292688047
%%linebreak <none>
%%barnumbers 0
L: 1/4
M: 3/1
Q: 1/2=120
V: 1 clef=treble
V: 2 clef=treble-8
V: 3 clef=treble-8
K: C
[V:1] z12 | 
[V:2] z12 | 
[V:3] A6B2c4 | 
[V:1] z12 | 
[V:2] d6e2f4 | 
[V:3] d6c2d4 | 
[V:1] G6A2B4 | 
[V:2] g6f2g4 | 
[V:3] e6dcB4 | 
[V:1] c6B2c4 | 
[V:2] a6gfe4 | 
[V:3] A4z4A4 | 
[V:1] d6cBA4 | 
[V:2] d4z4d4 | 
[V:3] B2G4E2F4 | 
[V:1] G4z4G4 | 
[V:2] e2c4A2B4 | 
[V:3] E4e2e4d2 | 
[V:1] A2F4D2E4 | 
[V:2] A4a2a4g2 | 
[V:3] c2A4d2c2B2 | 
[V:1] D4d2d4c2 | 
[V:2] f2d4g2f2e2 | 
[V:3] d4B2G2A4 | 
[V:1] B2G4c2B2A2 | 
[V:2] g4e2c2d4 | 
[V:3] G4z4G2F2 | 
[V:1] c4A2F2G4 | 
[V:2] c4z4c2B2 | 
[V:3] A3GF2D2E4 | 
[V:1] F4z4F2E2 | 
[V:2] d3cB2G2A4 | 
[V:3] D4z2d2c2e2- | 
[V:1] G3FE2C2D4 | 
[V:2] G4z2g2f2a2- | 
[V:3] e2d2e4z2d2 | 
[V:1] C4z2c2B2d2- | 
[V:2] a2g2a4z2g2 | 
[V:3] e2c4A2B4 | 
[V:1] d2c2d4z2c2 | 
[V:2] a2f4d2e4 | 
[V:3] A4z2B2c2A2 | 
[V:1] d2B4G2A4 | 
[V:2] d4z2e2f2d2 | 
[V:3] BAGFE4D4 | 
[V:1] G4z2A2B2G2 | 
[V:2] edcBA4G4 | 
[V:3] G2E2F4z2E2- | 
[V:1] AGFED4C4 | 
[V:2] c2A2B4z2A2- | 
[V:3] E2F2G4A4 | 
[V:1] F2D2E4z2D2- | 
[V:2] A2B2c4d4 | 
[V:3] F2G4E2D4 | 
[V:1] D2E2F4G4 | 
[V:2] B2c4A2G4 | 
[V:3] z4A4B4 | 
[V:1] E2F4D2C4 | 
[V:2] z4d4e4 | 
[V:3] c2d2B4A2c2 | 
[V:1] z4G4A4 | 
[V:2] f2g2e4d2f2 | 
[V:3] d2e3Bc2z2d2 | 
[V:1] B2c2A4G2B2 | 
[V:2] g2a3ef2z2g2 | 
[V:3] B2A2d4G4 | 
[V:1] c2d3AB2z2c2 | 
[V:2] e2d2g4c4 | 
[V:3] A2B4G2A4 | 
[V:1] A2G2c4F4 | 
[V:2] d2e4c2d4 | 
[V:3] F2G2AGFED4 | 
[V:1] G2A4F2G4 | 
[V:2] B2c2dcBAG4 | 
[V:3] G2F2D4z2d2 | 
[V:1] E2F2GFEDC4 | 
[V:2] c2B2G4z2g2 | 
[V:3] e2d2B4A2c2- | 
[V:1] F2E2C4z2c2 | 
[V:2] a2g2e4d2f2- | 
[V:3] cde4c2d2A2 | 
[V:1] d2c2A4G2B2- | 
[V:2] fga4f2g2d2 | 
[V:3] B2cd2cA2B4 | 
[V:1] Bcd4B2c2G2 | 
[V:2] e2fg2fd2e4 | 
[V:3] A2G2B4A2E2 | 
[V:1] A2Bc2BG2A4 | 
[V:2] d2c2e4d2A2 | 
[V:3] F4E4z2e2- | 
[V:1] G2F2A4G2D2 | 
[V:2] B4A4z2a2- | 
[V:3] e2d2c3Bc2d2 | 
[V:1] E4D4z2d2- | 
[V:2] a2g2f3ef2g2 | 
[V:3] c3AB2A4G2 | 
[V:1] d2c2B3AB2c2 | 
[V:2] f3de2d4c2 | 
[V:3] A4G2F2E4 | 
[V:1] B3GA2G4^F2 | 
[V:2] d4c2B2A4 | 
[V:3] D2F4G2D4 | 
[V:1] !fermata!G8 |]  
[V:2] !fermata!G8 |]  
[V:3] d8 |]  



